lib/brands/icons/ms-powerpoint.svg

<svg xmlns="http://www.w3.org/2000/svg" fill="none" aria-hidden="true" viewBox="0 0 48 48"><g id="ms-powerpoint-Icon"><g id="Group"><circle id="Ellipse" cx="25.5483" cy="24" r="14.4516" fill="url(#paint0_linear_94_18419)"/><g id="Mask Group"><mask id="mask0_94_18419" width="29" height="30" x="11" y="9" maskUnits="userSpaceOnUse" style="mask-type:alpha"><circle id="Ellipse_2" cx="25.5483" cy="24" r="14.4516" fill="#C4C4C4"/></mask><g mask="url(#mask0_94_18419)"><rect id="Rectangle 7" width="17.5484" height="17.5484" x="26.5801" y="7.48389" fill="url(#paint1_linear_94_18419)"/><path id="Rectangle 2" fill="black" fill-opacity="0.3" d="M14.1934 19.7742C14.1934 18.1173 15.5365 16.7742 17.1934 16.7742H25.645C27.3018 16.7742 28.645 18.1173 28.645 19.7742V32.3548C28.645 34.0117 27.3018 35.3548 25.645 35.3548H14.1934V19.7742Z"/><rect id="Rectangle 7_2" width="17.5484" height="17.5484" x="9.03223" y="7.48389" fill="#EB6C4D"/></g></g><rect id="rectangle" width="18.5806" height="18.5806" x="8" y="14.7097" fill="url(#paint2_linear_94_18419)" rx="2"/><path id="P" fill="white" d="M21.4192 22.4074C21.4192 20.1806 19.9533 18.8387 17.6286 18.8387H14.1934V29.1613H16.3256V26.0203H17.5397C19.7164 26.0203 21.4192 24.7816 21.4192 22.4074ZM19.2573 22.4516C19.2573 23.4544 18.6206 24.1032 17.5842 24.1032H16.3256V20.7705H17.5694C18.6058 20.7705 19.2573 21.3161 19.2573 22.4516Z"/></g></g><defs><linearGradient id="paint0_linear_94_18419" x1="11.0967" x2="39.9999" y1="25.9933" y2="25.9933" gradientUnits="userSpaceOnUse"><stop stop-color="#A73A24"/><stop offset="1" stop-color="#F75936"/></linearGradient><linearGradient id="paint1_linear_94_18419" x1="40.5156" x2="26.5801" y1="17.8065" y2="17.8065" gradientUnits="userSpaceOnUse"><stop stop-color="#FDB8A3"/><stop offset="1" stop-color="#F1876D"/></linearGradient><linearGradient id="paint2_linear_94_18419" x1="8" x2="26.5806" y1="25.2814" y2="25.2814" gradientUnits="userSpaceOnUse"><stop stop-color="#A73A24"/><stop offset="1" stop-color="#F75936"/></linearGradient></defs></svg>

<svg xmlns="http://www.w3.org/2000/svg" fill="none" aria-hidden="true" viewBox="0 0 48 48"><circle cx="25.548" cy="24" r="14.452" fill="url(#a)"/><mask id="b" width="29" height="30" x="11" y="9" maskUnits="userSpaceOnUse" style="mask-type:alpha"><circle cx="25.548" cy="24" r="14.452" fill="#C4C4C4"/></mask><g mask="url(#b)"><path fill="url(#c)" d="M26.58 7.484h17.548v17.548H26.58z"/><path fill="#000" fill-opacity=".3" d="M14.193 19.774a3 3 0 0 1 3-3h8.452a3 3 0 0 1 3 3v12.58a3 3 0 0 1-3 3H14.193v-15.58Z"/><path fill="#EB6C4D" d="M9.032 7.484H26.58v17.548H9.032z"/></g><rect width="18.581" height="18.581" x="8" y="14.71" fill="url(#d)" rx="2"/><path fill="#fff" d="M21.42 22.407c0-2.226-1.467-3.568-3.791-3.568h-3.436V29.16h2.133v-3.14h1.214c2.176 0 3.88-1.24 3.88-3.614Zm-2.163.045c0 1.002-.636 1.651-1.673 1.651h-1.258V20.77h1.243c1.037 0 1.688.546 1.688 1.682Z"/><defs><linearGradient id="a" x1="11.097" x2="40" y1="25.993" y2="25.993" gradientUnits="userSpaceOnUse"><stop stop-color="#A73A24"/><stop offset="1" stop-color="#F75936"/></linearGradient><linearGradient id="c" x1="40.516" x2="26.58" y1="17.806" y2="17.806" gradientUnits="userSpaceOnUse"><stop stop-color="#FDB8A3"/><stop offset="1" stop-color="#F1876D"/></linearGradient><linearGradient id="d" x1="8" x2="26.581" y1="25.281" y2="25.281" gradientUnits="userSpaceOnUse"><stop stop-color="#A73A24"/><stop offset="1" stop-color="#F75936"/></linearGradient></defs></svg>
